client/src/assets/public/images/icons/intelligence_green.svg

<?xml version="1.0" encoding="UTF-8"?>
<svg width="22px" height="24px" viewBox="0 0 22 24" version="1.1" xmlns="http://www.w3.org/2000/svg" xmlns:xlink="http://www.w3.org/1999/xlink">
    <!-- Generator: Sketch 48.2 (47327) - http://www.bohemiancoding.com/sketch -->
    <title>intelligence</title>
    <desc>Created with Sketch.</desc>
    <defs></defs>
    <g id="Course-2" stroke="none" stroke-width="1" fill="none" fill-rule="evenodd" transform="translate(-90.000000, -1509.000000)">
        <g id="Accordions" transform="translate(48.000000, 1001.000000)" fill="#48A9A6" fill-rule="nonzero">
            <g id="Conocimiento" transform="translate(0.000000, 508.000000)">
                <g id="intelligence" transform="translate(42.000000, 0.000000)">
                    <path d="M21.3707747,12.9199603 C20.8386446,12.1127461 20.3053872,11.3055318 19.7710023,10.4983176 C20.0581207,10.1387637 20.1928976,9.68100788 20.1464246,9.22323478 C20.1448111,9.19056025 20.1448111,9.15782601 20.1464246,9.12515149 C20.1464246,9.08118311 20.1464246,9.03721474 20.1464246,8.99662855 C20.1107892,7.41562193 19.5966285,5.88257379 18.671793,4.5997912 C18.4035625,4.23477516 18.1024139,3.89513388 17.7721324,3.58513643 C15.874728,1.73170038 13.077663,0.669695057 10.1013424,0.669695057 C8.89889504,0.666053736 7.70278571,0.843930815 6.55343283,1.19731554 C6.21521458,1.27848792 5.91081815,1.36980685 5.63009699,1.46789014 C4.14341078,1.95934733 2.84431558,2.89705786 1.90969616,4.15334311 C0.814924359,5.40153281 0.205155339,7.00157632 0.191547417,8.66179247 C0.170553903,10.0680004 0.535532228,11.4530464 1.24678838,12.6662966 C1.48692334,13.1195091 1.75749795,13.5558107 2.01792601,13.9752013 C2.17012422,14.2221006 2.32570462,14.4723821 2.47452065,14.7226636 C3.01981223,15.5983682 3.42278665,16.5550044 3.6684311,17.5569326 C3.95215673,18.9208262 3.88701026,20.334272 3.47902888,21.6662845 C3.41476741,21.8928907 3.34374157,22.1161147 3.27271574,22.342721 L2.95479058,23.3303183 L14.7721365,23.3303183 L14.8228692,22.8771058 C14.8228692,22.7722582 14.8431623,22.6707927 14.8533089,22.5693272 C14.8666279,22.3787737 14.8903384,22.1890893 14.9243347,22.0011205 C14.9885962,21.6865776 15.1306478,21.6087874 15.3403432,21.5851121 L15.4587195,21.5851121 L15.8916389,21.5377615 L16.5004318,21.490411 C16.9570264,21.4599713 17.430532,21.4261495 17.9006554,21.3585058 C18.4016919,21.3377052 18.8328436,21.1702331 19.1791204,20.8816181 C19.4023444,20.6583941 20.0787809,19.9819575 19.913054,16.0721545 L19.913054,15.9639246 C19.889445,15.6968087 20.0514846,15.4481618 20.3053872,15.3618961 C20.7561788,15.3205013 21.1784078,15.1231421 21.4992976,14.803836 C21.8689561,14.4518627 21.9487106,13.8921822 21.692082,13.450963 C21.5939987,13.264943 21.4992976,13.0924516 21.3707747,12.9199603 Z M19.9626238,13.8852448 C19.8198331,14.0258259 19.631751,14.1111189 19.4319178,14.1259138 C18.7024097,14.2269172 18.1685378,14.8648941 18.1977177,15.6007829 C18.1977177,15.6192959 18.1977177,15.6655784 18.1977177,15.7396304 C18.3242232,18.747993 17.8891677,19.3434945 17.7996882,19.4422305 C17.6185437,19.5482157 17.4139269,19.6075863 17.2041867,19.6150185 C16.7598747,19.6705575 16.3649307,19.698327 15.9453027,19.729182 L15.3744851,19.772379 L14.9517716,19.8186615 L14.8468646,19.8186615 C14.2422838,19.873418 13.7538443,20.3350762 13.6651181,20.9356126 C13.6360868,21.0927874 13.6154873,21.2514032 13.6034081,21.4107796 L4.91772527,21.4107796 C4.95166578,21.2966161 4.98560628,21.1855381 5.01646128,21.0713746 C5.43201147,19.7098017 5.49675411,18.2652977 5.20467678,16.8720089 C4.96177219,15.8590601 4.55866715,14.8913996 4.01058824,14.0055793 C3.87174074,13.7710813 3.72672223,13.5365833 3.58478923,13.3051708 C3.35337672,12.9318253 3.11579321,12.5461378 2.90906471,12.1604503 C2.33821758,11.1898832 2.04670678,10.0804337 2.06672318,8.95461566 C2.07853568,7.6547901 2.55832207,6.40274479 3.41817222,5.42788904 C4.18079841,4.3947371 5.21917837,3.64779434 6.40802183,3.26495347 C6.63634883,3.18473046 6.88318884,3.11376396 7.19173885,3.03662646 C8.16009408,2.73758569 9.16811371,2.58674684 10.1815885,2.58922894 C12.6499885,2.58922894 14.9733701,3.46242547 16.5346332,4.98974803 C16.7973147,5.23466662 17.0369342,5.50320569 17.2504692,5.79197805 C17.989961,6.81189469 18.3981856,8.03441454 18.4198737,9.29402067 C18.4198737,9.31870467 18.4198737,9.34338868 18.4198737,9.36807268 C18.4165089,9.4328245 18.4165089,9.49770736 18.4198737,9.56245918 C18.4388726,9.73973522 18.3867123,9.91730209 18.2748552,10.0561392 C18.00505,10.3618832 17.9857561,10.8146466 18.2285727,11.1422352 C18.7181388,11.8765843 19.2046193,12.6129903 19.6880143,13.3514533 C19.7836648,13.4933863 19.8762298,13.6384048 19.9626238,13.7865088 C19.9842282,13.8158754 19.9842282,13.8558783 19.9626238,13.8852448 Z" id="Shape"></path>
                    <path d="M17.0201649,9.79954197 C17.0641805,9.71839755 17.1027203,9.63440043 17.1355265,9.54811282 C17.1355265,9.5244489 17.1562324,9.50374297 17.1621484,9.48303704 C17.1930841,9.39314568 17.2177925,9.30123054 17.2360981,9.20794398 C17.2360981,9.18428006 17.2360981,9.16357413 17.2538461,9.13991021 C17.2749236,9.02076132 17.285809,8.90003292 17.286384,8.77903544 C17.286384,8.71100167 17.286384,8.6429679 17.286384,8.57493413 C17.286384,8.5542282 17.286384,8.53648026 17.286384,8.51873232 C17.286384,8.50098438 17.286384,8.42407664 17.265678,8.3767488 L17.265678,8.317589 C17.265678,8.27026117 17.2449721,8.22589132 17.2301821,8.18152147 L17.2124342,8.12827765 C17.1966583,8.08094981 17.1789103,8.03362197 17.1591904,7.98629413 L17.1414425,7.94784026 C17.1177785,7.89459644 17.0931286,7.84332462 17.0674927,7.79402478 L17.0674927,7.77627684 C16.9398117,7.54325956 16.7691909,7.33650725 16.5646344,7.16693092 L16.5409705,7.14918298 L16.4137769,7.0545273 L16.3664491,7.0249474 L16.2570035,6.95691363 L16.1889697,6.91845976 L16.097272,6.87408991 L16.0055743,6.83267805 L15.9050027,6.79422418 C15.8087494,6.75732234 15.7098748,6.72765996 15.6092037,6.70548448 C15.3002631,5.88143779 14.5133197,5.3348184 13.6332664,5.33297715 C13.5253403,5.33245015 13.4175381,5.34036223 13.3108455,5.35664107 C12.8791445,4.70874813 12.1748134,4.29389926 11.3988562,4.23048522 C10.622899,4.16707118 9.86055751,4.46205825 9.329391,5.03126217 L9.28797914,5.03126217 L9.16670155,4.9928083 L9.07796186,4.96914438 L8.95964226,4.94252248 L8.84428065,4.92477454 L8.74666698,4.92477454 C8.67271723,4.92477454 8.60172547,4.92477454 8.52777573,4.92477454 C7.7184661,4.92487708 6.96713309,5.34477258 6.54296447,6.03402077 C5.54104523,6.02836324 4.62867687,6.61001274 4.21095235,7.52071598 C3.79322782,8.43141922 3.94758187,9.50235665 4.60548106,10.2580304 C4.60548106,10.2816943 4.60548106,10.3053582 4.58181714,10.3260642 C4.55815322,10.3467701 4.54927925,10.4207199 4.5344893,10.4710057 C4.51969935,10.5212915 4.51674136,10.5419974 4.50786739,10.5745353 C4.49899342,10.6070732 4.48420347,10.672149 4.47237151,10.7224348 C4.46053955,10.7727207 4.47237151,10.8082165 4.45166558,10.8525864 C4.43095965,10.8969562 4.45166558,10.9383681 4.43391764,10.97978 C4.43391764,11.0685197 4.43391764,11.1572594 4.43391764,11.2459991 C4.43492974,11.3667418 4.44382262,11.4872897 4.46053955,11.6068738 C4.46053955,11.6334957 4.46053955,11.6601176 4.46053955,11.6867396 C4.47835357,11.7985868 4.50305039,11.9092285 4.5344893,12.0180344 C4.57062619,12.1392801 4.61510208,12.2578825 4.66759885,12.3729932 C4.72467455,12.4898422 4.78991184,12.6025248 4.86282618,12.7102041 C4.99812291,12.9214494 5.16129769,13.1134783 5.34793653,13.2810961 L5.37455844,13.3047601 C5.5596514,13.4673828 5.76555947,13.6046548 5.98686236,13.7129627 L6.01052628,13.7129627 L5.71472729,14.6240236 C5.5825774,15.0227682 5.74019181,15.4601788 6.09630799,15.682984 L6.93341914,16.2242961 C7.14886586,16.3588227 7.41057518,16.3976324 7.65579026,16.3314187 C7.90100534,16.265205 8.10760982,16.0999399 8.22606075,15.8752533 L9.11345774,14.206947 L9.13120568,14.206947 C9.22387812,14.1990102 9.31583036,14.1841792 9.40629874,14.1625771 L9.45362658,14.1625771 C9.54446106,14.139698 9.63345061,14.1100348 9.71984567,14.0738374 L9.74646758,14.0738374 C9.82616949,14.0378387 9.9032642,13.9963262 9.9771908,13.9496019 L10.0097287,13.8934001 C10.0834464,13.8441394 10.1536239,13.7897766 10.219746,13.7307106 L10.2493259,13.7070467 C10.6078141,13.8920657 11.0054404,13.9884292 11.4088579,13.9880557 C11.5817819,13.9877863 11.754231,13.9699467 11.9235482,13.9348119 L11.9442541,13.9348119 C12.0211619,13.917064 12.0951116,13.899316 12.1690614,13.8756521 L12.3021709,13.8283243 L12.4027426,13.7898704 C12.4619024,13.7632485 12.5210622,13.7366266 12.577264,13.7070467 L12.6245918,13.6833828 C12.6867096,13.6508449 12.7458694,13.612391 12.8020712,13.5739371 L12.8346091,13.5532312 C12.8908109,13.5147773 12.9440547,13.4733655 12.9972985,13.4319536 L13.0327944,13.4053317 C13.0801223,13.3668778 13.1244921,13.322508 13.1718199,13.2810961 L13.2191478,13.2367263 L13.2457697,13.2101044 C14.1902136,13.7501732 15.3732986,13.6314972 16.1916555,12.9146006 C17.0100123,12.197704 17.2833492,11.0405258 16.8722654,10.0332232 C16.9107192,9.98293734 16.9373411,9.92673554 16.969879,9.87644971 L17.0201649,9.79954197 Z M13.9906183,12.3428571 C13.7558774,12.342438 13.5248215,12.2844544 13.3176972,12.1739872 C13.5622792,11.6189471 13.5669081,10.9875643 13.3304904,10.4289979 C13.2806472,10.2974605 13.16284,10.2037288 13.0234663,10.1847184 C12.8840925,10.165708 12.745486,10.2244651 12.6622359,10.3378487 C12.5789857,10.4512323 12.5644321,10.6010734 12.624307,10.7283582 C12.8128408,11.1762821 12.7628124,11.6890737 12.491258,12.0921109 C12.4619096,12.1347046 12.4303081,12.1757011 12.3965885,12.2149254 L12.3530917,12.2609808 L12.2865672,12.330064 L12.2353945,12.3761194 L12.161194,12.434968 L12.1100213,12.4733475 C12.0679627,12.5020834 12.0244043,12.5285601 11.9795309,12.5526652 L11.94371,12.5705757 L11.8336887,12.6217484 L11.782516,12.6396588 L11.6776119,12.6729211 L11.6238806,12.6857143 L11.5113006,12.7061834 L11.4626866,12.7061834 C11.4072957,12.7093862 11.3517661,12.7093862 11.2963753,12.7061834 C11.0978145,12.7051756 10.9016806,12.662462 10.7206823,12.5808102 C10.7841283,12.4060733 10.8170181,12.2217177 10.8179104,12.0358209 C10.8179104,11.8238566 10.6460794,11.6520256 10.4341151,11.6520256 C10.2221508,11.6520256 10.0503198,11.8238566 10.0503198,12.0358209 C10.0536333,12.2601013 9.96915938,12.4767953 9.81492537,12.6396588 L9.78166311,12.6729211 C9.75808606,12.6947487 9.73331441,12.7152494 9.70746269,12.7343284 L9.65628998,12.7727079 C9.62349041,12.7937697 9.58929637,12.8125765 9.55394456,12.8289979 L9.47974414,12.8571429 L9.41321962,12.8776119 L9.34413646,12.8955224 C9.29934197,12.903356 9.25399797,12.9076337 9.20852878,12.9083156 L9.17014925,12.9083156 C9.10723682,12.9074569 9.04460596,12.8997353 8.98336887,12.8852878 C8.83406304,12.8492376 8.67764304,12.9056762 8.58575275,13.0287535 C8.49386245,13.1518308 8.48420119,13.3178405 8.56119403,13.4507463 L7.87292111,14.758209 L7.84221748,14.758209 L7.10788913,14.2976546 C7.10271493,14.2899106 7.10271493,14.2798123 7.10788913,14.2720682 L7.36375267,13.4584222 C7.46047505,13.4711609 7.55788355,13.4779966 7.6554371,13.4788913 C7.8674014,13.4788913 8.03923241,13.3070602 8.03923241,13.0950959 C8.03923241,12.8831317 7.8674014,12.7113006 7.6554371,12.7113006 C7.4165222,12.7103753 7.18071306,12.6570999 6.96460554,12.5552239 L6.94925373,12.5552239 C6.71682773,12.4429461 6.51428834,12.2772321 6.35820896,12.0716418 C6.25368739,11.9335897 6.17165107,11.7798796 6.11513859,11.6162047 C6.0896642,11.5393217 6.06999281,11.4606361 6.05628998,11.3808102 L6.05628998,11.3424307 C6.04265484,11.2578252 6.03580998,11.1722644 6.0358209,11.0865672 C6.03239084,11.0252078 6.03239084,10.9637048 6.0358209,10.9023454 C6.0358209,10.8818763 6.0358209,10.8614072 6.0358209,10.8409382 C6.0358209,10.8204691 6.04861407,10.7616205 6.05884861,10.7232409 L6.07675906,10.6592751 C6.07675906,10.6208955 6.09978678,10.5799574 6.11257996,10.5415778 L6.13049041,10.4904051 C6.15095949,10.4392324 6.17142857,10.3906183 6.19701493,10.3420043 L6.19701493,10.3215352 L6.19701493,10.3061834 C6.48291671,9.78312342 7.0311957,9.45749082 7.62729211,9.45671642 C7.83925641,9.45671642 8.01108742,9.28488541 8.01108742,9.07292111 C8.01108742,8.86095681 7.83925641,8.6891258 7.62729211,8.6891258 C6.93123531,8.68957839 6.26989013,8.99316199 5.81577825,9.5206823 C5.52880162,9.04860904 5.53935877,8.45347171 5.8428978,7.99187361 C6.14643684,7.53027552 6.68867638,7.28476346 7.2358209,7.36119403 L7.51982942,7.39701493 L7.63496802,7.14115139 C7.86104055,6.60887167 8.42842187,6.30705041 8.99616205,6.41705757 L9.05501066,6.41705757 C9.12227638,6.43200972 9.18817677,6.45255011 9.25202559,6.47846482 L9.29552239,6.4989339 C9.63823254,6.65434011 9.89213641,6.95657746 9.98609022,7.32095916 C10.080044,7.68534086 10.0039407,8.07266873 9.77910448,8.37441365 C9.65263245,8.54469163 9.68814419,8.78525505 9.85842217,8.91172708 C10.0287002,9.03819911 10.2692636,9.00268737 10.3957356,8.83240938 C10.5427822,8.63247659 10.6512468,8.40687022 10.715565,8.16716418 C11.0355224,8.30579517 11.3985928,8.30579517 11.7185501,8.16716418 C11.9135573,8.08379156 12.0040549,7.85812016 11.9206823,7.66311301 C11.8373097,7.46810585 11.6116383,7.37760819 11.4166311,7.46098081 C11.161483,7.57119849 10.8650074,7.45760631 10.7488273,7.20511727 L10.7488273,7.18464819 C10.6579086,6.79175239 10.4511124,6.43520731 10.1552239,6.16119403 C10.4946784,5.86897016 10.9510874,5.75195727 11.3892676,5.84481333 C11.8274478,5.93766938 12.1971649,6.2297491 12.3889126,6.63454158 L12.5501066,6.9466951 L12.8724947,6.83667377 C13.319907,6.67766689 13.8182633,6.8406315 14.0852878,7.23326226 C13.8268824,7.30115568 13.5866334,7.42521148 13.3816631,7.59658849 C13.2774543,7.68571444 13.2287095,7.82366496 13.2537904,7.95847543 C13.2788714,8.09328589 13.3739676,8.20447537 13.5032574,8.25015987 C13.6325472,8.29584437 13.7763882,8.26908332 13.880597,8.17995736 C14.0692695,8.01721909 14.309487,7.92657096 14.5586354,7.92409382 L14.5791045,7.92409382 L14.6584222,7.92409382 C14.7083059,7.92744813 14.7578939,7.93428785 14.806823,7.9445629 L14.8682303,7.96247335 C14.9118187,7.97506287 14.954551,7.99044652 14.996162,8.00852878 L15.0703625,8.04946695 C15.1374923,8.08191184 15.1988581,8.12512721 15.2520256,8.17739872 C15.2724947,8.19530917 15.2955224,8.21321962 15.3159915,8.2336887 C15.3462374,8.26601476 15.3744372,8.30019629 15.4004264,8.33603412 C15.4132196,8.35394456 15.4285714,8.36929638 15.4413646,8.38720682 C15.4673022,8.42821411 15.4903845,8.47095918 15.5104478,8.51513859 C15.5104478,8.53304904 15.5283582,8.54840085 15.5360341,8.56375267 C15.5550334,8.61201309 15.5704274,8.66161607 15.5820896,8.71215352 C15.5820896,8.72750533 15.5820896,8.74285714 15.5974414,8.76076759 C15.6243202,8.89418205 15.6243202,9.03161753 15.5974414,9.16503198 C15.5974414,9.19061834 15.5846482,9.21620469 15.5769723,9.24179104 C15.5678291,9.27818507 15.5567255,9.31405829 15.54371,9.34925373 C15.54371,9.37739872 15.5181237,9.40554371 15.5053305,9.4336887 C15.4925373,9.46183369 15.4746269,9.49509595 15.4567164,9.52324094 L15.4081023,9.59488273 C15.3850194,9.6260634 15.3602489,9.65595876 15.3339019,9.68443497 C15.1854677,9.84739934 14.9893641,9.95933065 14.7735608,10.0042644 C14.5615965,10.0254608 14.4069486,10.2144749 14.428145,10.4264392 C14.4493414,10.6384035 14.6383555,10.7930514 14.8503198,10.771855 C14.8758436,10.7743862 14.9015551,10.7743862 14.9270789,10.771855 C15.0898987,10.734172 15.2466431,10.6738857 15.3927505,10.5927505 C15.4154224,10.691825 15.427431,10.7930405 15.4285714,10.8946695 C15.4306125,11.2776022 15.2800976,11.6455882 15.0102814,11.9173248 C14.7404652,12.1890615 14.3735558,12.3421824 13.9906183,12.3428571 Z" id="Shape"></path>
                </g>
            </g>
        </g>
    </g>
</svg>

<svg xmlns="http://www.w3.org/2000/svg" width="22" height="24" fill="#48a9a6" fill-rule="nonzero"><path d="M21.3708 12.92L19.77 10.4983c.287-.3596.422-.8173.3754-1.275v-.2266a7.822 7.822 0 0 0-1.4746-4.3968 7.407 7.407 0 0 0-.8997-1.0147C15.8747 1.7317 13.0777.6697 10.1013.6697a11.951 11.951 0 0 0-3.5479.5276L5.63 1.468a7.617 7.617 0 0 0-3.7204 2.6855A6.924 6.924 0 0 0 .1915 8.6618a7.691 7.691 0 0 0 1.0552 4.0045l.77 1.31.4566.7475c.5453.8757.9483 1.8323 1.194 2.8343a8.276 8.276 0 0 1-.1894 4.1094l-.2063.6764-.318.9876H14.772l.0507-.4532c0-.1048.0203-.2063.0304-.3078a5.249 5.249 0 0 1 .071-.5682c.0643-.3145.2063-.3923.416-.416h.1184l.433-.0474.6088-.0474 1.4002-.132c.5-.0208.9322-.1883 1.2785-.477.2232-.2232.8997-.8997.734-4.8095v-.1082a.582.582 0 0 1 .3923-.602 1.945 1.945 0 0 0 1.1939-.5581 1.103 1.103 0 0 0 .1928-1.353c-.098-.186-.1928-.3585-.3213-.53zm-1.4082.9653a.845.845 0 0 1-.5307.2407 1.432 1.432 0 0 0-1.2342 1.4749v.1388c.1265 3.0084-.3085 3.604-.398 3.7026a1.268 1.268 0 0 1-.5955.1728l-1.26.1142-.5708.0432-.4227.0463h-.105c-.6046.0548-1.093.5164-1.1817 1.117a4.48 4.48 0 0 0-.0617.4752H4.9177l.0987-.3394a8.448 8.448 0 0 0 .1882-4.1994 9.784 9.784 0 0 0-1.1941-2.8664l-.4258-.7004-.6757-1.1447a6.109 6.109 0 0 1-.8423-3.2058 5.406 5.406 0 0 1 1.3514-3.5267c.7626-1.0332 1.8-1.78 2.9898-2.163.2283-.0802.4752-.1512.7837-.2283a10.015 10.015 0 0 1 2.9898-.4474c2.4684 0 4.7918.8732 6.353 2.4005.2627.245.5023.5135.7158.8022C18 6.812 18.3982 8.0344 18.42 9.294v.074a1.873 1.873 0 0 0 0 .1944c.02.1773-.0332.3548-.145.4937a.864.864 0 0 0-.0463 1.0861l1.4594 2.2092.2746.435c.0216.0294.0216.0694 0 .0987zm-2.9424-4.0858a2.054 2.054 0 0 0 .1154-.2514c0-.0237.0207-.0444.0266-.065a2.082 2.082 0 0 0 .074-.275c0-.0237 0-.0444.0177-.068a2.13 2.13 0 0 0 .0325-.3609V8.519c0-.0177 0-.0947-.0207-.142v-.0592c0-.0473-.0207-.0917-.0355-.136l-.0177-.0532-.0532-.142-.0177-.0385-.074-.1538v-.0177a2.106 2.106 0 0 0-.5029-.6093l-.0237-.0177-.1272-.0947-.0473-.0296-.1094-.068-.068-.0385-.0917-.0444-.0917-.0414-.1006-.0385c-.0963-.037-.195-.0666-.2958-.0887a2.115 2.115 0 0 0-1.9759-1.3725c-.108-.0005-.2157.0074-.3224.0237a2.547 2.547 0 0 0-3.9815-.3254H9.288l-.1213-.0385-.0887-.0237-.1183-.0266-.1154-.0177h-.3165A2.331 2.331 0 0 0 6.543 6.034a2.55 2.55 0 0 0-1.9375 4.224c0 .0237 0 .0473-.0237.068s-.0325.0947-.0473.145l-.0266.1035-.0355.148c-.0118.0503 0 .0858-.0207.1302s0 .0858-.0177.1272v.2662a2.797 2.797 0 0 0 .0266.361v.08a2.754 2.754 0 0 0 .0739.3313 2.745 2.745 0 0 0 .1331.355c.057.1168.1223.2295.1952.3372.1353.2112.2985.4033.485.57l.0266.0237c.185.1626.4.3.6123.4082h.0237l-.2958.91a.911.911 0 0 0 .3816 1.059l.837.5413a.914.914 0 0 0 1.2926-.349l.8874-1.6683h.0177a1.878 1.878 0 0 0 .275-.0444h.0473c.0908-.023.1798-.0525.2662-.0887h.0266c.0797-.036.1568-.0775.2307-.1242l.0325-.0562a1.899 1.899 0 0 0 .21-.1627l.0296-.0237a2.523 2.523 0 0 0 1.1595.281c.173-.0003.3454-.018.5147-.0532h.0207l.2248-.0592.133-.0473.1006-.0385.1745-.0828.0473-.0237c.062-.0325.1213-.07.1775-.1094l.0325-.0207.1627-.1213.0355-.0266.14-.1242.0473-.0444.0266-.0266a2.55 2.55 0 0 0 3.6265-3.1769c.0385-.0503.065-.1065.0976-.1568l.0503-.077zm-3.0295 2.5433c-.2347-.0004-.4658-.0584-.673-.17.2446-.555.2492-1.1864.0128-1.745a.384.384 0 1 0-.7062.2994 1.441 1.441 0 0 1-.133 1.3638c-.0293.0426-.06.0836-.0947.1228l-.0435.046-.0665.07-.0512.046-.0742.0588-.0512.0384c-.042.0287-.0856.0552-.1305.0793l-.0358.018-.1.0512-.0512.018-.105.0333-.0537.0128-.1126.0205h-.0486c-.0554.0032-.11.0032-.1663 0-.1986-.001-.3947-.0437-.5757-.1254.0634-.1747.0963-.36.0972-.545a.384.384 0 0 0-.3838-.3838.384.384 0 0 0-.3838.3838c.0033.2243-.0812.44-.2354.6038l-.0333.0333c-.0236.0218-.0483.0423-.0742.0614l-.0512.0384a.855.855 0 0 1-.1023.0563l-.0742.028-.0665.0205-.07.018a.879.879 0 0 1-.1356.0128H9.17a.865.865 0 0 1-.1868-.023.384.384 0 0 0-.4222.5655l-.6883 1.3075H7.842l-.7343-.4606a.023.023 0 0 1 0-.0256l.256-.8136c.0967.0127.194.0196.2917.0205a.384.384 0 0 0 .3838-.3838.384.384 0 0 0-.3838-.3838 1.635 1.635 0 0 1-.6908-.1561h-.0154a1.635 1.635 0 0 1-.591-.4836 1.64 1.64 0 0 1-.243-.4554c-.0255-.077-.045-.1556-.0588-.2354v-.0384a1.607 1.607 0 0 1-.0205-.2559c-.0034-.0614-.0034-.123 0-.1842v-.0614c0-.0205.0128-.0793.023-.1177l.018-.064c0-.0384.023-.0793.0358-.1177l.018-.0512.0665-.1484v-.0358a1.633 1.633 0 0 1 1.4303-.8495.384.384 0 0 0 .3838-.3838.384.384 0 0 0-.3838-.3838c-.696.0005-1.3574.304-1.8115.8316-.287-.472-.2764-1.0672.027-1.5288s.8458-.707 1.393-.6307l.284.0358.115-.256c.226-.5323.7935-.834 1.3612-.724h.0588a1.242 1.242 0 0 1 .197.0614l.0435.0205c.3427.1554.5966.4576.6906.822a1.243 1.243 0 0 1-.207 1.0535.384.384 0 1 0 .6166.458c.147-.2.2555-.4255.3198-.6652.32.1386.683.1386 1.003 0a.384.384 0 1 0-.3019-.7062.512.512 0 0 1-.6678-.2559v-.0205a2.014 2.014 0 0 0-.5936-1.0235 1.436 1.436 0 0 1 1.234-.3164c.438.0928.808.385.9996.7897l.1612.3122.3224-.1a1.044 1.044 0 0 1 1.2128.3966c-.2584.068-.4987.192-.7036.3633a.384.384 0 0 0 .1216.6536.384.384 0 0 0 .3773-.0702 1.054 1.054 0 0 1 .678-.2559h.0998a1.072 1.072 0 0 1 .1484.0205l.0614.018c.0436.0126.0863.028.128.046l.0742.04a.683.683 0 0 1 .1817.1279l.064.0563c.0302.0323.0584.0665.0844.1023.0128.018.028.0333.04.0512a.866.866 0 0 1 .069.128c0 .018.018.0333.0256.0486a1.049 1.049 0 0 1 .0461.1484c0 .0154 0 .0307.0154.0486a1.019 1.019 0 0 1 0 .4043c0 .0256-.0128.0512-.0205.0768a.989.989 0 0 1-.0333.1075c0 .028-.0256.0563-.0384.0844a.77.77 0 0 1-.0486.0896l-.0486.0716a1.095 1.095 0 0 1-.0742.0896 1.045 1.045 0 0 1-.5603.3198.386.386 0 0 0-.3454.4222.386.386 0 0 0 .4222.3454.389.389 0 0 0 .0768 0 1.791 1.791 0 0 0 .4657-.1791 1.425 1.425 0 0 1 .0358.3019c.002.383-.1485.75-.4183 1.0227a1.44 1.44 0 0 1-1.0197.4255z"/></svg>
